X: 17377
T: High Road To Fort Augustus
R: reel
M: 4/4
K: Bminor
|B,FF^G A2 (A/G/F)|EA,ED CA,A,C|B,FF^G A2 (AB)|AFEC B,/B,/B, B,2:|
BFBc dcBd|cAeA cAAc|BFBc dcBd|cAec ~B2 B2 c|
def^g agfe|faed cAAa|fdec dBcA|AFEC ~B,2 B,2||

